X:1
T:Title
%%score { ( 1 3 ) | ( 2 4 ) }
L:1/8
Q:1/4=100
M:4/4
K:Bb
V:1 treble nm="Grand Piano"
V:3 treble 
V:2 bass 
V:4 bass 
V:1
 [DF]2 [DB]>[Ec] [EB]2 [EA]2 | F2 c>d c2 B2 | [DF]2 [DB]>[Fd] [Ff]2 [Fd][Ec] | %3
w: John~R.~Sweney * * * *|||
 z4 c4[K:bass][K:treble] | [DF]2 [DB]>[Ec] [EB]2 [EA]2 | F2 c>d c2 B2 | %6
w: |||
 d2 [_Af]>[Af] [Ge]2 [Gd][^Fc] | [FB]2 [EA]2 [DB]4 | c2 F>F F4 | d2 B>B B4 | %10
w: ||||
 [Ge]2 [Ge]>[Ge] [GB]2 [^Fc]2 | [Fd]6 z2 | z4 c2 z2 | d4 B2 z2 | F2 [FB]>[Gc] [Fd]2 [A,Ec]2 | %15
w: |||||
 [DB]6 z2 |] %16
w: |
V:2
 [B,,B,]2 [B,,B,]>[B,,F,] [C,F,]2 [C,F,]2 | [F,A,E]2 [F,A,E]>[K:treble][F,A,F] [B,EF]2 [B,DF]2 | %2
 [B,,B,]2 [B,,F,]>[B,,B,] [B,,D]2 [B,,B,][C,A,] | z4 [A,F]4 | %4
 [B,,B,]2 [B,,B,]>[B,,F,] [C,F,]2 [C,F,]2 | [F,A,E]2 [F,A,E]>[K:treble][F,A,F] [B,EF]2 [B,DF]2 | %6
 [B,F]2[K:bass] [D,B,]>[D,B,] [E,B,]2 [E,E][E,E] | [F,D]2 [F,C]2 [B,,B,]4 | %8
 [F,A,F]2 [A,CE]>[A,CE] [A,CE]4 | [B,F]2 [B,DF]>[B,DF] [B,DF]4 | %10
 [E,B,]2 [E,B,]>[E,B,] [E,E]2 [E,B,]2 | [B,,B,]6[K:treble] d>e | f4[K:bass] z4 | %13
 z2 [^F,A,]>[F,A,] [G,B,D][G,B,] [E,B,E]>[E,B,E] | [F,B,D]2 [D,B,]>[E,B,] [F,B,]2 [F,,F,]2 | %15
 [B,,B,]6 z2 |] %16
V:3
 x8 | x8 | x8 | [FB]2 [=Ec]>[Ed] z[K:bass] E,D,[K:treble]_E | x8 | x8 | x8 | x8 | x8 | x8 | x8 | %11
 x8 | z2 [DB]>[DB] [EA][EA] B>c | z2 D>D z D G>G | x8 | x8 |] %16
V:4
 x8 | x7/2[K:treble] x9/2 | x8 | [D,B,]2 [C,G,]>[C,G,] .F,2 z C, | x8 | x7/2[K:treble] x9/2 | %6
 x2[K:bass] x6 | x8 | x8 | x8 | x8 | x6[K:treble] x2 | z2[K:bass] B,,>B,, F,F, z2 | x8 | x8 | x8 |] %16

